X:1
T:Spinn, Spinn!
T:Spinn, Spinn!
T:Arr. af Reissiger
C:Arr. af Reissiger
%%score [ 1 2 3 4 ]
L:1/8
Q:1/4=84
M:3/4
K:G
V:1 treble-8 nm="T1"
V:2 treble-8 nm="T2"
V:3 bass nm="B1"
V:4 bass nm="B2"
V:1
!mf!"^Mod. con sentimento"!<(! d2!<)!!>(! e3!>)! d | !>!d2 c2 c2 | a3 g f e | e d!<(! (B2 d2)!<)! | %4
w: Ung- mön vid|slän- dan satt,|sorg- sen bå- de|dag och natt; _|
 g3 B B c | !>!B3/2 A/ A2 z2 |!>(! e3 d!>)! c A | !>!A3/2 G/ G2 z2 |] %8
w: fjer- ran hör- des|bäc- kens språng,|vin- dens sus och|tra- stens sång.|
V:2
!mf!!<(! B2!<)!!>(! B3!>)! G | !>!B2 A2 A2 | c3 c c c | c B!<(! (G2 B2)!<)! | B3 G ^G G | %5
w: Ung- mön vid|slän- dan satt,|sorg- sen bå- de|dag och natt; _|fjer- ran hör- des|
 !>!^G3/2 A/ A2 z2 |!>(! ^A3 B!>)! G F | !>!F3/2 G/ G2 z2 |] %8
w: bäc- kens språng,|vin- dens sus och|tra- stens sång.|
V:3
!mf!!<(! G,2!<)!!>(! G,3!>)! D, | !>!F,2 F,2 G,2 | F,3 G, A, F, | G, G,!<(! (D,2 G,2)!<)! | %4
w: Ung- mön vid|slän- dan satt,|sorg- sen bå- de|dag och natt; _|
 G,3 G, =F, F, | !>!E,3/2 E,/ E,2 z2 |!>(! G,3 G,!>)! E, D, | !>!C,3/2 B,,/ B,,2 z2 |] %8
w: fjer- ran hör- des|bäc- kens språng,|vin- dens sus och|tra- stens sång.|
V:4
!mf!!<(! G,,2!<)!!>(! G,,3!>)! G,, | !>!D,2 D,2 _E,2 | D,3 D, D, D, | G,, G,,!<(! (G,,2 G,2)!<)! | %4
w: Ung- mön vid|slän- dan satt,|sorg- sen bå- de|dag och natt; _|
 E,3 E, D, D, | !>!C,3/2 C,/ C,2 z2 |!>(! ^C,3 D,!>)! A,, D, | !>!G,,3/2 G,,/ G,,2 z2 |] %8
w: fjer- ran hör- des|bäc- kens språng,|vin- dens sus och|tra- stens sång.|

